src/lib/packages/icons/src/assets/line/fish.svg

<svg width="24" height="24" viewBox="0 0 24 24" fill="none" xmlns="http://www.w3.org/2000/svg">
<path d="M18.7699 12.0001C18.7699 12.4101 18.4399 12.7501 18.0199 12.7501C17.5999 12.7501 17.2699 12.4101 17.2699 12.0001C17.2699 11.5901 17.5999 11.2501 18.0199 11.2501C18.4399 11.2501 18.7699 11.5901 18.7699 12.0001ZM21.2899 13.3801C19.7599 15.3901 17.7599 16.7601 15.5199 17.3801C15.5199 17.3801 15.5099 17.3801 15.4999 17.3901C15.4599 17.4001 15.4199 17.4001 15.3799 17.4101C14.7899 17.5601 14.1799 17.6801 13.5699 17.7301L9.83988 19.6701C9.72988 19.7301 9.60989 19.7501 9.48989 19.7501C9.33989 19.7501 9.19989 19.7101 9.06989 19.6201C8.83989 19.4701 8.71989 19.2001 8.73989 18.9301L8.94988 16.7701C8.11988 16.3701 7.09988 15.7701 6.19988 14.9201L3.64989 16.3301C3.28989 16.5401 2.83989 16.4801 2.53989 16.1901C2.22989 15.9001 2.14988 15.4501 2.33988 15.0701L3.87988 12.0001L2.33988 8.9301C2.14988 8.5501 2.22989 8.10011 2.53989 7.81011C2.84989 7.52011 3.29989 7.4701 3.65989 7.6801L6.19988 9.0801C7.10988 8.2301 8.12988 7.63012 8.94988 7.23012L8.73989 5.07012C8.70989 4.80012 8.83989 4.53011 9.06989 4.38011C9.29989 4.23011 9.58988 4.2101 9.83988 4.3401L13.5699 6.28011C14.1999 6.33011 14.8099 6.44011 15.4099 6.60011C15.4399 6.60011 15.4699 6.60009 15.4999 6.61009C15.4999 6.61009 15.5099 6.6101 15.5199 6.6201C17.7499 7.2401 19.7599 8.6001 21.2899 10.6201C21.9099 11.4301 21.9099 12.5701 21.2899 13.3801ZM14.2699 16.1301C13.4099 13.3901 13.4099 10.6201 14.2699 7.8701C13.9399 7.8201 13.6199 7.77012 13.3299 7.76012C13.2199 7.76012 13.1199 7.7301 13.0299 7.6801L10.3899 6.31011L10.5199 7.6201C10.5499 7.9401 10.3699 8.25011 10.0699 8.38011C9.26989 8.73011 8.09989 9.34011 7.13989 10.2801C6.73989 10.6701 6.14989 10.7501 5.66989 10.4901L4.49989 9.84011L5.40989 11.6601C5.51989 11.8701 5.51989 12.1201 5.40989 12.3301L4.49989 14.1501L5.66989 13.5001C5.85989 13.4001 6.05988 13.3501 6.26988 13.3501C6.58988 13.3501 6.89989 13.4701 7.14989 13.7101C8.11989 14.6501 9.27989 15.2701 10.0799 15.6101C10.3799 15.7401 10.5599 16.0501 10.5299 16.3701L10.3999 17.6801L13.0399 16.3101C13.1299 16.2601 13.2399 16.2301 13.3399 16.2301C13.6299 16.2101 13.9499 16.1701 14.2799 16.1201L14.2699 16.1301ZM20.0999 11.5301C18.7199 9.71011 17.1599 8.7401 15.7299 8.2401C14.9299 10.7401 14.9299 13.2701 15.7299 15.7701C17.1599 15.2701 18.7199 14.3001 20.0999 12.4801C20.3099 12.2001 20.3099 11.8101 20.0999 11.5301Z" fill="currentColor"/>
</svg>

<svg xmlns="http://www.w3.org/2000/svg" width="24" height="24" fill="none"><path fill="currentColor" d="M18.77 12a.749.749 0 1 1-1.5 0 .749.749 0 1 1 1.5 0Zm2.52 1.38c-1.53 2.01-3.53 3.38-5.77 4 0 0-.01 0-.02.01-.04.01-.08.01-.12.02-.59.15-1.2.27-1.81.32l-3.73 1.94c-.11.06-.23.08-.35.08a.755.755 0 0 1-.75-.82l.21-2.16c-.83-.4-1.85-1-2.75-1.85l-2.55 1.41c-.36.21-.81.15-1.11-.14a.945.945 0 0 1-.2-1.12L3.88 12 2.34 8.93a.945.945 0 0 1 .2-1.12c.31-.29.76-.34 1.12-.13l2.54 1.4c.91-.85 1.93-1.45 2.75-1.85l-.21-2.16c-.03-.27.1-.54.33-.69.23-.15.52-.17.77-.04l3.73 1.94c.63.05 1.24.16 1.84.32.03 0 .06 0 .09.01 0 0 .01 0 .02.01 2.23.62 4.24 1.98 5.77 4 .62.81.62 1.95 0 2.76Zm-7.02 2.75c-.86-2.74-.86-5.51 0-8.26-.33-.05-.65-.1-.94-.11a.61.61 0 0 1-.3-.08l-2.64-1.37.13 1.31c.03.32-.15.63-.45.76-.8.35-1.97.96-2.93 1.9-.4.39-.99.47-1.47.21L4.5 9.84l.91 1.82c.11.21.11.46 0 .67l-.91 1.82 1.17-.65a1.258 1.258 0 0 1 1.48.21c.97.94 2.13 1.56 2.93 1.9.3.13.48.44.45.76l-.13 1.31 2.64-1.37c.09-.05.2-.08.3-.08.29-.02.61-.06.94-.11l-.01.01Zm5.83-4.6c-1.38-1.82-2.94-2.79-4.37-3.29-.8 2.5-.8 5.03 0 7.53 1.43-.5 2.99-1.47 4.37-3.29.21-.28.21-.67 0-.95Z"/></svg>
